home/.icons/Gruvbox-Plus-Dark/emblems/16/vcs-update-required.svg

<svg width="16" height="16" version="1.1" xmlns="http://www.w3.org/2000/svg">
  <circle cx="8" cy="8" r="7" fill="#458588"/>
  <path d="m13 8h-2a3 3 0 0 1-3 3 3 3 0 0 1-3-3 3 3 0 0 1 3-3v1l3-2-3-2v1a5 5 0 0 0-5 5 5 5 0 0 0 5 5 5 5 0 0 0 5-5z" fill="#ebdbb2"/>
</svg>

<svg xmlns="http://www.w3.org/2000/svg" width="16" height="16" version="1.1" viewBox="0 0 16 16">
 <circle style="fill:#458588" cx="8" cy="8" r="7"/>
 <path style="fill:#ebdbb2" d="M 13,8 H 11 A 3,3 0 0 1 8,11 3,3 0 0 1 5,8 3,3 0 0 1 8,5 V 6 L 11,4 8,2 V 3 A 5,5 0 0 0 3,8 5,5 0 0 0 8,13 5,5 0 0 0 13,8 Z"/>
</svg>
